icons/filter-remove-16.svg

<svg width="16" height="16" viewBox="0 0 16 16" fill="none" xmlns="http://www.w3.org/2000/svg">
<path d="M14.3839 4.56954C14.6768 4.86244 15.1517 4.86244 15.4446 4.56954C15.7374 4.27665 15.7374 3.80178 15.4446 3.50888L14.5607 2.625L15.4445 1.74112C15.7374 1.44823 15.7374 0.973352 15.4445 0.680459C15.1517 0.387565 14.6768 0.387565 14.3839 0.680459L13.5 1.56434L12.6161 0.680455C12.3232 0.387562 11.8484 0.387562 11.5555 0.680455C11.2626 0.973348 11.2626 1.44822 11.5555 1.74111L12.4393 2.625L11.5555 3.50889C11.2626 3.80178 11.2626 4.27665 11.5555 4.56955C11.8484 4.86244 12.3232 4.86244 12.6161 4.56955L13.5 3.68566L14.3839 4.56954Z" fill="black"/>
<path d="M0.75 3C0.335786 3 0 3.33578 0 3.75C0 4.16421 0.335786 4.5 0.75 4.5H9C9.41421 4.5 9.75 4.16421 9.75 3.75C9.75 3.33578 9.41421 3 9 3H0.75Z" fill="black"/>
<path d="M3 7.75C3 7.33578 3.33579 7 3.75 7H12.25C12.6642 7 13 7.33578 13 7.75C13 8.16421 12.6642 8.5 12.25 8.5H3.75C3.33579 8.5 3 8.16421 3 7.75Z" fill="black"/>
<path d="M6 11.75C6 11.3358 6.33579 11 6.75 11H9.25C9.66421 11 10 11.3358 10 11.75C10 12.1642 9.66421 12.5 9.25 12.5H6.75C6.33579 12.5 6 12.1642 6 11.75Z" fill="black"/>
</svg>

<svg xmlns="http://www.w3.org/2000/svg" width="16" height="16" viewBox="0 0 16 16"><path d="M14.384 4.57a.752.752 0 0 0 1.061 0 .752.752 0 0 0 0-1.061l-.884-.884.883-.884A.75.75 0 0 0 14.384.68l-.884.884-.884-.884a.75.75 0 0 0-1.06 1.061l.883.884-.883.884a.75.75 0 0 0 1.06 1.061l.884-.884.884.884ZM.75 3a.75.75 0 0 0 0 1.5H9A.75.75 0 0 0 9 3H.75ZM3 7.75A.75.75 0 0 1 3.75 7h8.5a.75.75 0 0 1 0 1.5h-8.5A.75.75 0 0 1 3 7.75Zm3 4a.75.75 0 0 1 .75-.75h2.5a.75.75 0 0 1 0 1.5h-2.5a.75.75 0 0 1-.75-.75Z"/></svg>
